!!!COM: Bach, Johann Sebastian
!!!CDT: 1685/3//-1750/7/28/
!!!OTL@@DE: Wenn wir in hoechsten Noeten sein
!!!AGN: 4-Part Chorale; Chorale Prelude
!!!SCT: BH 068
!!!SCT: BWV 431
**harm	**root	**kern	**kern	**kern	**kern
!	!	!bass	!tenor	!alto	!soprno
*	*Iorgan	*Iorgan	*Iorgan	*Iorgan	*Iorgan
*	*	*clefF4	*clefF4	*clefG2	*clefG2
*M4/4	*M4/4	*M4/4	*M4/4	*M4/4	*M4/4
*met(c)	*met(c)	*met(c)	*met(c)	*met(c)	*met(c)
*MM60	*MM60	*MM60	*MM60	*MM60	*MM60
*k[]	*k[]	*k[]	*k[]	*k[]	*k[]
*C:	*C:	*C:	*C:	*C:	*C:
I	4FF	8C	8E	[4G	4c
.	.	8BB	8D	.	.
=1	=1	=1	=1	=1	=1
viiob/V	4BB	4AA	4C	8G]	4c
.	.	.	.	8F#	.
Vb	8CC	8BB	8G	[4G	4d
V7	8CC	8GG	8Fy	.	.
I	4FF	4C	8E	8G]	4e
.	.	.	8F	8A	.
V	4CC	4GG	4G	4B	8d
.	.	.	.	.	8e
=2	=2	=2	=2	=2	=2
IVb	8BB-	8AA	8C	8c	4f
V7b	8CC	8BB	8G	[8d	.
I	4FF	4C	4G	8d]	4e
.	.	.	.	[8c	.
ii7b	8GG	4FF	8A	8c]	4.d
iib	8GG	.	8F	16B	.
.	.	.	.	16A	.
V	4CC	4GG	8D	4B	.
.	.	.	16G	.	8d
.	.	.	16F	.	.
=3	=3	=3	=3	=3	=3
I;	2FF;	2CC;	2E;	2G;	2c;
r	4r	4r	4r	4r	4r
I	4FF	8C	4G	[4c	4e
.	.	8BB-	.	.	.
=4	=4	=4	=4	=4	=4
IVb	8BB-	8AA	8A	8c]	4f
V7b	8CC	8BB	8G	[8d	.
I	4FF	4C	4G	8d]	4e
.	.	.	.	[8c	.
V7b/V	8GG	8FF#	8A	8c]	4d
V	8CC	8GG	4G	8B	.
viio/V	4BB	4AA	.	4A	4c
.	.	.	8F#	.	.
!!linebreak: 2
=5	=5	=5	=5	=5	=5
V	4CC	8GG	4G	4D	4B
.	.	8FFy	.	.	.
Ib	4FF	8EE	4C	4G	4c
.	.	8CC	.	.	.
V;	4CC;	4GG;	4BB;	4G;	4d;
iii	4AA	4EE	4E	8B	4g
.	.	.	.	8c#	.
=6	=6	=6	=6	=6	=6
ii	8GG	4DD	8A	8d	4f
viioD7/vi	8CC#	.	8G#	8B	.
vi	4DD	8AA	4A	8c	4e
.	.	8GG	.	8B	.
Vb/V	4GG	4FF#	4D	[4A	8d
.	.	.	.	.	8c
V	4CC	4GG	4D	8A]	4B
.	.	.	.	[8G	.
=7	=7	=7	=7	=7	=7
I	4FF	4CC	4E	8G]	4c
.	.	.	.	16A	.
.	.	.	.	16G	.
V/V	4GG	4DD	8D	4F#	4A
.	.	.	8C	.	.
V;	4CC;	4GG;	4BB;	4D;	4G;
I	4FF	4CC	4G	8c	4e
.	.	.	.	8B-	.
=8	=8	=8	=8	=8	=8
ii	4GG	4DD	4F	8A	4f
.	.	.	.	8B	.
Ib	4FF	8EE	[4G	[4c	4e
.	.	8FF	.	.	.
V	4CC	4GG	8.G]	8c]	4d
.	.	.	.	[8B	.
.	.	.	16F	.	.
vi	8DD	4AA	8E	8B]	4c
IVb	8BB-	.	8F	16A	.
.	.	.	.	16B	.
=9	=9	=9	=9	=9	=9
Ib	4FF	8EE	4G	4.c	4e
.	.	8FF	.	.	.
V	4CC	4GG	8.G	.	4d
.	.	.	.	8B	.
.	.	.	16F	.	.
I;	4FF;	4CC;	4E;	4G;	4c;
==	==	==	==	==	==
*-	*-	*-	*-	*-	*-
!!chor2scor: -l 2 -s 0.6 -o %b.pmx
!!!YEC: Copyright 1994, David Huron
!!!YEC: Changes/Additions Copyright 2001 by Craig Stuart Sapp
!!!license: GNU General Public License (http://www.gnu.org/copyleft/gpl.html)
!!!SMA: 371 Bach Chorales, edited by Ludwig Erk, C.F. Peters
!!!PDT: 1850, 1865
!!!ONB: Harmony and Root analysis done manually
